; generated by Slic3r 1.2.9 on 2017-10-21 at 15:56:09

; external perimeters extrusion width = 0.50mm
; perimeters extrusion width = 0.72mm
; infill extrusion width = 0.72mm
; solid infill extrusion width = 0.72mm
; top infill extrusion width = 0.72mm

M107
M104 S200 ; set temperature
G28 ; home all axes
G1 Z5 F5000 ; lift nozzle

M109 S200 ; wait for temperature to be reached
G21 ; set units to millimeters
G90 ; use absolute coordinates
M82 ; use absolute distances for extrusion
G92 E0
G1 Z0.500 F7800.000
G1 E-2.00000 F2400.00000
G92 E0
G1 X51.458 Y38.544 F7800.000
G1 E2.00000 F2400.00000
G1 X53.625 Y36.377 E2.19353 F1800.000
G1 X53.935 Y36.182 E2.21666
G1 X56.118 Y35.286 E2.36563
G1 X56.914 Y35.138 E2.41674
G1 X57.868 Y35.072 E2.47714
G1 X142.132 Y35.072 E7.79806
G1 X143.086 Y35.138 E7.85846
G1 X143.882 Y35.286 E7.90957 F1800.000
G1 X146.065 Y36.182 E8.05855
G1 X146.375 Y36.377 E8.08168
G1 X148.542 Y38.544 E8.27520
G1 X148.737 Y38.854 E8.29832
G1 X149.632 Y41.037 E8.44731
G1 X149.780 Y41.830 E8.49829
G1 X149.847 Y42.786 E8.55881
G1 X149.847 Y157.214 E15.78437
G1 X149.780 Y158.169 E15.84487
G1 X149.632 Y158.963 E15.89588
G1 X148.737 Y161.146 E16.04485
G1 X148.542 Y161.456 E16.06797
G1 X146.375 Y163.623 E16.26150
G1 X146.065 Y163.818 E16.28462
G1 X143.882 Y164.714 E16.43361
G1 X143.086 Y164.862 E16.48475
G1 X142.132 Y164.928 E16.54510
G1 X57.762 Y164.931 E21.87271
G1 X57.259 Y164.912 E21.90450
G1 X55.383 Y164.510 E22.02566
G1 X54.499 Y164.142 E22.08613
G1 X51.841 Y161.982 E22.30236
G1 X51.553 Y161.593 E22.33296
G1 X50.517 Y159.559 E22.47709
G1 X50.219 Y158.201 E22.56491
G1 X50.153 Y157.225 E22.62669
G1 X50.153 Y42.786 E29.85295
G1 X50.220 Y41.832 E29.91333
G1 X50.368 Y41.037 E29.96445
G1 X51.263 Y38.854 E30.11343
G1 X51.418 Y38.607 E30.13182
G1 E28.13182 F2400.00000
G92 E0
G1 X140.669 Y44.251 F7800.000
G1 E2.00000 F2400.00000
G1 X140.669 Y155.750 E9.04063 F1800.000
G1 X59.331 Y155.753 E14.17675
G1 X59.331 Y44.250 E21.21763
G1 X140.594 Y44.251 E26.34897
G1 X141.561 Y43.359 F7800.000
G1 X141.561 Y156.643 E33.50233 F1800.000
G1 X58.438 Y156.645 E38.75120
G1 X58.439 Y43.357 E45.90481
G1 X141.486 Y43.359 E51.14890
G1 X57.656 Y42.575 F7800.000
G1 X57.791 Y42.490 E51.15898 F1800.000
G1 X57.917 Y42.465 E51.16707
G1 X142.092 Y42.466 E56.48237
G1 X142.208 Y42.489 E56.48985
G1 X142.344 Y42.575 E56.49997
G1 X142.429 Y42.710 E56.51006
G1 X142.454 Y42.836 E56.51815
G1 X142.454 Y157.164 E63.73751
G1 X142.429 Y157.290 E63.74560
G1 X142.344 Y157.425 E63.75568
G1 X142.209 Y157.510 E63.76577
G1 X142.083 Y157.535 E63.77386
G1 X57.861 Y157.538 E69.09211
G1 X57.700 Y157.471 E69.10314
G1 X57.564 Y157.288 E69.11752
G1 X57.545 Y157.181 E69.12439
G1 X57.546 Y42.836 E76.34480
G1 X57.571 Y42.710 E76.35289
G1 X57.616 Y42.638 E76.35824
G1 X57.807 Y42.627 F7800.000
G1 X140.119 Y45.220 F7800.000
G1 X139.700 Y44.801 E76.39572 F1800.000
G1 X138.435 Y44.801 E76.47580
G1 X140.119 Y46.485 E76.62654
G1 X140.119 Y47.750 E76.70663
G1 X137.170 Y44.801 E76.97062
G1 X135.904 Y44.801 E77.05071
G1 X140.119 Y49.016 E77.42797
G1 X140.119 Y50.281 E77.50805
G1 X134.639 Y44.801 E77.99856
G1 X133.374 Y44.801 E78.07865
G1 X140.119 Y51.546 E78.68242
G1 X140.119 Y52.812 E78.76251
G1 X132.108 Y44.801 E79.47954
G1 X130.843 Y44.801 E79.55963
G1 X140.119 Y54.077 E80.38992
G1 X140.119 Y55.342 E80.47000
G1 X129.577 Y44.801 E81.41355
G1 X128.312 Y44.801 E81.49364
G1 X140.119 Y56.608 E82.55045
G1 X140.119 Y57.873 E82.63053
G1 X127.047 Y44.801 E83.80060
G1 X125.781 Y44.801 E83.88069
G1 X140.119 Y59.139 E85.16401
G1 X140.119 Y60.404 E85.24410
G1 X124.516 Y44.801 E86.64068
G1 X123.250 Y44.801 E86.72077
G1 X140.119 Y61.669 E88.23061
G1 X140.119 Y62.935 E88.31070
G1 X121.985 Y44.801 E89.93380
G1 X120.720 Y44.801 E90.01389
G1 X140.119 Y64.200 E91.75025
G1 X140.119 Y65.465 E91.83033
G1 X119.454 Y44.801 E93.67995
G1 X118.189 Y44.801 E93.76004
G1 X140.119 Y66.731 E95.72292
G1 X140.119 Y67.996 E95.80300
G1 X116.924 Y44.801 E97.87914
G1 X115.658 Y44.800 E97.95923
G1 X140.119 Y69.261 E100.14862
G1 X140.119 Y70.527 E100.22871
G1 X114.393 Y44.800 E102.53137
G1 X113.127 Y44.800 E102.61145
G1 X140.119 Y71.792 E105.02737
G1 X140.119 Y73.058 E105.10745
G1 X111.862 Y44.800 E107.63662
G1 X110.597 Y44.800 E107.71671
G1 X140.119 Y74.323 E110.35914
G1 X140.119 Y75.588 E110.43923
G1 X109.331 Y44.800 E113.19492
G1 X108.066 Y44.800 E113.27500
G1 X140.119 Y76.854 E116.14395
G1 X140.119 Y78.119 E116.22404
G1 X106.801 Y44.800 E119.20624
G1 X105.535 Y44.800 E119.28633
G1 X140.119 Y79.384 E122.38180
G1 X140.119 Y80.650 E122.46188
G1 X104.270 Y44.800 E125.67061
G1 X103.004 Y44.800 E125.75069
G1 X140.119 Y81.915 E129.07268
G1 X140.119 Y83.180 E129.15276
G1 X101.739 Y44.800 E132.58801
G1 X100.474 Y44.800 E132.66809
G1 X140.119 Y84.446 E136.21659
G1 X140.119 Y85.711 E136.29668
G1 X99.208 Y44.800 E139.95844
G1 X97.943 Y44.800 E140.03853
G1 X140.119 Y86.976 E143.81354
G1 X140.119 Y88.242 E143.89363
G1 X96.678 Y44.800 E147.78191
G1 X95.412 Y44.800 E147.86199
G1 X140.119 Y89.507 E151.86353
G1 X140.119 Y90.773 E151.94362
G1 X94.147 Y44.800 E156.05841
G1 X92.881 Y44.800 E156.13850
G1 X140.119 Y92.038 E160.36655
G1 X140.119 Y93.303 E160.44664
G1 X91.616 Y44.800 E164.78795
G1 X90.351 Y44.800 E164.86804
G1 X140.119 Y94.569 E169.32261
G1 X140.119 Y95.834 E169.40269
G1 X89.085 Y44.800 E173.97052
G1 X87.820 Y44.800 E174.05061
G1 X140.119 Y97.099 E178.73170
G1 X140.119 Y98.365 E178.81179
G1 X86.555 Y44.800 E183.60613
G1 X85.289 Y44.800 E183.68622
G1 X140.119 Y99.630 E188.59383
G1 X140.119 Y100.895 E188.67391
G1 X84.024 Y44.800 E193.69478
G1 X82.758 Y44.800 E193.77486
G1 X140.119 Y102.161 E198.90899
G1 X140.119 Y103.426 E198.98907
G1 X81.493 Y44.800 E204.23646
G1 X80.228 Y44.800 E204.31654
G1 X140.119 Y104.691 E209.67719
G1 X140.119 Y105.957 E209.75727
G1 X78.962 Y44.800 E215.23117
G1 X77.697 Y44.800 E215.31126
G1 X140.119 Y107.222 E220.89842
G1 X140.119 Y108.488 E220.97850
G1 X76.431 Y44.800 E226.67892
G1 X75.166 Y44.800 E226.75901
G1 X140.119 Y109.753 E232.57268
G1 X140.119 Y111.018 E232.65277
G1 X73.901 Y44.800 E238.57971
G1 X72.635 Y44.800 E238.65979
G1 X140.119 Y112.284 E244.69999
G1 X140.119 Y113.549 E244.78007
G1 X71.370 Y44.800 E250.93353
G1 X70.105 Y44.800 E251.01361
G1 X140.119 Y114.814 E257.28032
G1 X140.119 Y116.080 E257.36041
G1 X68.839 Y44.800 E263.74038
G1 X67.574 Y44.800 E263.82047
G1 X140.119 Y117.345 E270.31370
G1 X140.119 Y118.610 E270.39378
G1 X66.308 Y44.800 E277.00027
G1 X65.043 Y44.800 E277.08036
G1 X140.119 Y119.876 E283.80010
G1 X140.119 Y121.141 E283.88019
G1 X63.778 Y44.800 E290.71320
G1 X62.512 Y44.800 E290.79328
G1 X140.119 Y122.407 E297.73955
G1 X140.119 Y123.672 E297.81963
G1 X61.247 Y44.800 E304.87916
G1 X59.982 Y44.800 E304.95924
G1 X140.119 Y124.937 E312.13203
G1 X140.119 Y126.203 E312.21211
G1 X59.881 Y45.964 E319.39391
G1 X59.881 Y47.230 E319.47399
G1 X140.119 Y127.468 E326.65579
G1 X140.119 Y128.733 E326.73588
G1 X59.881 Y48.495 E333.91768
G1 X59.881 Y49.760 E333.99776
G1 X140.119 Y129.999 E341.17957
G1 X140.119 Y131.264 E341.25965
G1 X59.881 Y51.026 E348.44145
G1 X59.881 Y52.291 E348.52154
G1 X140.119 Y132.529 E355.70334
G1 X140.119 Y133.795 E355.78343
G1 X59.881 Y53.556 E362.96523
G1 X59.881 Y54.822 E363.04531
G1 X140.119 Y135.060 E370.22712
G1 X140.119 Y136.325 E370.30720
G1 X59.881 Y56.087 E377.48901
G1 X59.881 Y57.352 E377.56909
G1 X140.119 Y137.591 E384.75090
G1 X140.119 Y138.856 E384.83099
G1 X59.881 Y58.618 E392.01279
G1 X59.881 Y59.883 E392.09288
G1 X140.119 Y140.122 E399.27468
G1 X140.119 Y141.387 E399.35477
G1 X59.881 Y61.148 E406.53658
G1 X59.881 Y62.414 E406.61666
G1 X140.119 Y142.652 E413.79847
G1 X140.119 Y143.918 E413.87856
G1 X59.881 Y63.679 E421.06037
G1 X59.881 Y64.944 E421.14045
G1 X140.119 Y145.183 E428.32226
G1 X140.119 Y146.448 E428.40235
G1 X59.881 Y66.210 E435.58416
G1 X59.881 Y67.475 E435.66424
G1 X140.119 Y147.714 E442.84605
G1 X140.119 Y148.979 E442.92614
G1 X59.881 Y68.741 E450.10795
G1 X59.881 Y70.006 E450.18804
G1 X140.119 Y150.244 E457.36985
G1 X140.119 Y151.510 E457.44993
G1 X59.881 Y71.271 E464.63175
G1 X59.881 Y72.537 E464.71183
G1 X140.119 Y152.775 E471.89365
G1 X140.119 Y154.040 E471.97373
G1 X59.881 Y73.802 E479.15555
G1 X59.881 Y75.067 E479.23563
G1 X140.014 Y155.200 E486.40802
G1 X138.748 Y155.201 E486.48810
G1 X59.881 Y76.333 E493.54724
G1 X59.881 Y77.598 E493.62732
G1 X137.483 Y155.201 E500.57320
G1 X136.218 Y155.201 E500.65329
G1 X59.881 Y78.863 E507.48592
G1 X59.881 Y80.129 E507.56600
G1 X134.953 Y155.201 E514.28538
G1 X133.687 Y155.201 E514.36546
G1 X59.881 Y81.394 E520.97158
G1 X59.881 Y82.659 E521.05167
G1 X132.422 Y155.201 E527.54454
G1 X131.157 Y155.201 E527.62462
G1 X59.881 Y83.925 E534.00424
G1 X59.881 Y85.190 E534.08433
G1 X129.891 Y155.201 E540.35069
G1 X128.626 Y155.201 E540.43077
G1 X59.881 Y86.455 E546.58389
G1 X59.881 Y87.721 E546.66397
G1 X127.361 Y155.201 E552.70384
G1 X126.095 Y155.201 E552.78392
G1 X59.881 Y88.986 E558.71053
G1 X59.881 Y90.251 E558.79061
G1 X124.830 Y155.201 E564.60397
G1 X123.565 Y155.201 E564.68405
G1 X59.881 Y91.517 E570.38415
G1 X59.881 Y92.782 E570.46424
G1 X122.299 Y155.201 E576.05109
G1 X121.034 Y155.201 E576.13117
G1 X59.880 Y94.048 E581.60477
G1 X59.880 Y95.313 E581.68486
G1 X119.769 Y155.201 E587.04520
G1 X118.503 Y155.201 E587.12529
G1 X59.880 Y96.578 E592.37238
G1 X59.880 Y97.844 E592.45246
G1 X117.238 Y155.201 E597.58631
G1 X115.973 Y155.201 E597.66639
G1 X59.880 Y99.109 E602.68698
G1 X59.880 Y100.374 E602.76706
G1 X114.707 Y155.201 E607.67440
G1 X113.442 Y155.201 E607.75448
G1 X59.880 Y101.640 E612.54856
G1 X59.880 Y102.905 E612.62865
G1 X112.177 Y155.201 E617.30948
G1 X110.912 Y155.201 E617.38956
G1 X59.880 Y104.170 E621.95714
G1 X59.880 Y105.436 E622.03723
G1 X109.646 Y155.201 E626.49155
G1 X108.381 Y155.202 E626.57163
G1 X59.880 Y106.701 E630.91271
G1 X59.880 Y107.966 E630.99279
G1 X107.116 Y155.202 E635.22061
G1 X105.850 Y155.202 E635.30070
G1 X59.880 Y109.232 E639.41526
G1 X59.880 Y110.497 E639.49535
G1 X104.585 Y155.202 E643.49667
G1 X103.320 Y155.202 E643.57675
G1 X59.880 Y111.762 E647.46481
G1 X59.880 Y113.028 E647.54490
G1 X102.054 Y155.202 E651.31971
G1 X100.789 Y155.202 E651.39979
G1 X59.880 Y114.293 E655.06135
G1 X59.880 Y115.559 E655.14143
G1 X99.524 Y155.202 E658.68974
G1 X98.258 Y155.202 E658.76982
G1 X59.880 Y116.824 E662.20488
G1 X59.880 Y118.089 E662.28496
G1 X96.993 Y155.202 E665.60676
G1 X95.728 Y155.202 E665.68684
G1 X59.880 Y119.355 E668.89539
G1 X59.880 Y120.620 E668.97548
G1 X94.462 Y155.202 E672.07077
G1 X93.197 Y155.202 E672.15085
G1 X59.880 Y121.885 E675.13290
G1 X59.880 Y123.151 E675.21298
G1 X91.932 Y155.202 E678.08177
G1 X90.666 Y155.202 E678.16186
G1 X59.880 Y124.416 E680.91739
G1 X59.880 Y125.681 E680.99748
G1 X89.401 Y155.202 E683.63977
G1 X88.136 Y155.202 E683.71985
G1 X59.880 Y126.947 E686.24888
G1 X59.880 Y128.212 E686.32897
G1 X86.870 Y155.202 E688.74475
G1 X85.605 Y155.202 E688.82483
G1 X59.880 Y129.477 E691.12736
G1 X59.880 Y130.743 E691.20744
G1 X84.340 Y155.202 E693.39672
G1 X83.075 Y155.202 E693.47680
G1 X59.880 Y132.008 E695.55282
G1 X59.880 Y133.273 E695.63291
G1 X81.809 Y155.202 E697.59568
G1 X80.544 Y155.202 E697.67576
G1 X59.880 Y134.539 E699.52528
G1 X59.880 Y135.804 E699.60536
G1 X79.279 Y155.202 E701.34163
G1 X78.013 Y155.203 E701.42171
G1 X59.880 Y137.069 E703.04473
G1 X59.880 Y138.335 E703.12481
G1 X76.748 Y155.203 E704.63457
G1 X75.483 Y155.203 E704.71465
G1 X59.880 Y139.600 E706.11116
G1 X59.880 Y140.866 E706.19125
G1 X74.217 Y155.203 E707.47450
G1 X72.952 Y155.203 E707.55458
G1 X59.880 Y142.131 E708.72459
G1 X59.880 Y143.396 E708.80467
G1 X71.687 Y155.203 E709.86142
G1 X70.421 Y155.203 E709.94151
G1 X59.880 Y144.662 E710.88500
G1 X59.880 Y145.927 E710.96509
G1 X69.156 Y155.203 E711.79533
G1 X67.891 Y155.203 E711.87542
G1 X59.880 Y147.192 E712.59241
G1 X59.880 Y148.458 E712.67249
G1 X66.625 Y155.203 E713.27623
G1 X65.360 Y155.203 E713.35632
G1 X59.880 Y149.723 E713.84680
G1 X59.880 Y150.988 E713.92689
G1 X64.095 Y155.203 E714.30412
G1 X62.829 Y155.203 E714.38421
G1 X59.880 Y152.254 E714.64819
G1 X59.880 Y153.519 E714.72827
G1 X61.564 Y155.203 E714.87901
G1 X60.299 Y155.203 E714.95909
G1 X59.880 Y154.784 E714.99657
G1 Z0.800 F7800.000
G1 X58.082 Y43.001 F7800.000
G1 X141.918 Y43.013 E717.32532 F3600.000
G1 X141.918 Y156.999 E720.49160
G1 X58.083 Y157.000 E722.82033
G1 X58.082 Y43.076 E725.98487
G1 X57.552 Y42.477 F7800.000
G1 X57.658 Y42.403 E725.98846 F3600.000
G1 X57.881 Y42.347 E725.99484
G1 X142.183 Y42.358 E728.33656
G1 X142.342 Y42.403 E728.34116
G1 X142.444 Y42.475 E728.34462
G1 X142.516 Y42.577 E728.34809
G1 X142.572 Y42.800 E728.35447
G1 X142.572 Y157.200 E731.53227
G1 X142.515 Y157.426 E731.53872
G1 X142.448 Y157.523 E731.54201
G1 X142.342 Y157.597 E731.54560
G1 X142.119 Y157.653 E731.55198
G1 X57.887 Y157.654 E733.89178
G1 X57.680 Y157.599 E733.89772
G1 X57.567 Y157.525 E733.90147
G1 X57.453 Y157.347 E733.90733
G1 X57.429 Y157.161 E733.91254
G1 X57.428 Y42.800 E737.08926
G1 X57.485 Y42.574 E737.09571
G1 X57.510 Y42.539 E737.09691
G1 X57.238 Y42.032 F7800.000
G1 X57.421 Y41.903 E737.10105 F1800.000
G1 X57.753 Y41.810 E737.10743
G1 X57.858 Y41.802 E737.10937
G1 X142.257 Y41.813 E738.66978
G1 X142.579 Y41.903 E738.67596 F1800.000
G1 X142.835 Y42.084 E738.68174
G1 X143.016 Y42.339 E738.68753
G1 X143.108 Y42.672 E738.69391
G1 X143.117 Y42.776 E738.69585
G1 X143.117 Y157.224 E740.81178
G1 X143.108 Y157.328 E740.81372
G1 X143.015 Y157.661 E740.82012
G1 X142.837 Y157.914 E740.82583
G1 X142.579 Y158.097 E740.83167
G1 X142.247 Y158.190 E740.83806
G1 X142.142 Y158.198 E740.84000
G1 X57.815 Y158.199 E742.39906
G1 X57.456 Y158.103 E742.40593
G1 X57.170 Y157.918 E742.41223
G1 X56.945 Y157.563 E742.42000
G1 X56.884 Y157.197 E742.42686
G1 X56.883 Y42.776 E744.54230
G1 X56.892 Y42.672 E744.54425
G1 X56.985 Y42.339 E744.55064
G1 X57.177 Y42.076 E744.55666
G1 X57.448 Y42.108 F7800.000
G1 E742.55666 F2400.00000
G92 E0
G1 X58.480 Y43.716 F7800.000
G1 E2.00000 F2400.00000
G1 X58.797 Y43.399 E2.01249 F1200.000
G1 X59.724 Y43.399 E2.03828
G1 X58.480 Y44.643 E2.08725
G1 X58.480 Y45.570 E2.11304
G1 X60.651 Y43.399 E2.19847
G1 X61.578 Y43.399 E2.22426
G1 X58.480 Y46.497 E2.34616
G1 X58.480 Y47.424 E2.37195
G1 X62.505 Y43.399 E2.53032
G1 X63.432 Y43.399 E2.55611
G1 X58.480 Y48.351 E2.75096
G1 X58.480 Y49.278 E2.77675
G1 X64.359 Y43.399 E3.00806
G1 X65.286 Y43.400 E3.03385
G1 X58.480 Y50.206 E3.30163
G1 X58.480 Y51.133 E3.32742
G1 X66.213 Y43.400 E3.63167
G1 X67.140 Y43.400 E3.65746
G1 X58.480 Y52.060 E3.99818
G1 X58.480 Y52.987 E4.02397
G1 X68.067 Y43.400 E4.40116
G1 X68.993 Y43.400 E4.42695
G1 X58.480 Y53.914 E4.84061
G1 X58.480 Y54.841 E4.86640
G1 X69.920 Y43.400 E5.31653
G1 X70.847 Y43.400 E5.34232
G1 X58.480 Y55.768 E5.82892
G1 X58.480 Y56.695 E5.85471
G1 X71.774 Y43.400 E6.37778
G1 X72.701 Y43.401 E6.40357
G1 X58.480 Y57.622 E6.96311
G1 X58.480 Y58.549 E6.98890
G1 X73.628 Y43.401 E7.58491
G1 X74.555 Y43.401 E7.61070
G1 X58.480 Y59.476 E8.24317
G1 X58.480 Y60.403 E8.26897
G1 X75.482 Y43.401 E8.93791
G1 X76.409 Y43.401 E8.96370
G1 X58.480 Y61.330 E9.66912
G1 X58.480 Y62.257 E9.69491
G1 X77.336 Y43.401 E10.43680
G1 X78.263 Y43.401 E10.46259
G1 X58.480 Y63.184 E11.24094
G1 X58.480 Y64.111 E11.26673
G1 X79.190 Y43.402 E12.08156
G1 X80.117 Y43.402 E12.10735
G1 X58.480 Y65.038 E12.95865
G1 X58.480 Y65.965 E12.98444
G1 X81.043 Y43.402 E13.87220
G1 X81.970 Y43.402 E13.89799
G1 X58.480 Y66.892 E14.82223
G1 X58.480 Y67.819 E14.84802
G1 X82.897 Y43.402 E15.80872
G1 X83.824 Y43.402 E15.83451
G1 X58.480 Y68.746 E16.83169
G1 X58.480 Y69.673 E16.85748
G1 X84.751 Y43.402 E17.89112
G1 X85.678 Y43.402 E17.91691
G1 X58.480 Y70.600 E18.98703
G1 X58.480 Y71.527 E19.01282
G1 X86.605 Y43.403 E20.11940
G1 X87.532 Y43.403 E20.14519
G1 X58.480 Y72.455 E21.28824
G1 X58.480 Y73.382 E21.31403
G1 X88.459 Y43.403 E22.49356
G1 X89.386 Y43.403 E22.51935
G1 X58.480 Y74.309 E23.73534
G1 X58.480 Y75.236 E23.76113
G1 X90.313 Y43.403 E25.01359
G1 X91.240 Y43.403 E25.03938
G1 X58.480 Y76.163 E26.32831
G1 X58.480 Y77.090 E26.35411
G1 X92.167 Y43.403 E27.67951
