; generated by Slic3r 1.2.9 on 2017-10-21 at 16:00:27

; external perimeters extrusion width = 0.50mm
; perimeters extrusion width = 0.72mm
; infill extrusion width = 0.72mm
; solid infill extrusion width = 0.72mm
; top infill extrusion width = 0.72mm

M107
M104 S200 ; set temperature
G28 ; home all axes
G1 Z5 F5000 ; lift nozzle

M109 S200 ; wait for temperature to be reached
G21 ; set units to millimeters
G90 ; use absolute coordinates
M82 ; use absolute distances for extrusion
G92 E0
G1 Z0.500 F7800.000
G1 E-2.00000 F2400.00000
G92 E0
G1 X38.259 Y51.663 F7800.000
G1 E2.00000 F2400.00000
G1 X38.407 Y51.553 E2.01167 F1800.000
G1 X40.364 Y50.541 E2.15079
G1 X41.799 Y50.219 E2.24365
G1 X42.775 Y50.153 E2.30543
G1 X157.214 Y50.153 E9.53169
G1 X158.167 Y50.220 E9.59205 F1800.000
G1 X158.963 Y50.368 E9.64319
G1 X161.146 Y51.263 E9.79217
G1 X161.456 Y51.458 E9.81529
G1 X163.623 Y53.625 E10.00882
G1 X163.818 Y53.935 E10.03195
G1 X164.714 Y56.118 E10.18093
G1 X164.862 Y56.914 E10.23204
G1 X164.928 Y57.868 E10.29243
G1 X164.928 Y142.132 E15.61336
G1 X164.862 Y143.087 E15.67376
G1 X164.714 Y143.882 E15.72486
G1 X163.818 Y146.065 E15.87385
G1 X163.623 Y146.375 E15.89697
G1 X161.456 Y148.542 E16.09050
G1 X161.146 Y148.737 E16.11362
G1 X158.963 Y149.632 E16.26260
G1 X158.169 Y149.780 E16.31360
G1 X157.213 Y149.847 E16.37410
G1 X42.786 Y149.847 E23.59966
G1 X41.830 Y149.780 E23.66018
G1 X41.037 Y149.632 E23.71117
G1 X38.854 Y148.737 E23.86015
G1 X38.544 Y148.542 E23.88327
G1 X36.377 Y146.375 E24.07679
G1 X36.182 Y146.065 E24.09991
G1 X35.286 Y143.882 E24.24890
G1 X35.138 Y143.086 E24.30005
G1 X35.072 Y142.132 E24.36039
G1 X35.069 Y57.762 E29.68801
G1 X35.088 Y57.250 E29.72036
G1 X35.490 Y55.383 E29.84096
G1 X35.858 Y54.499 E29.90143
G1 X38.018 Y51.841 E30.11766
G1 X38.198 Y51.707 E30.13186
G1 E28.13186 F2400.00000
G92 E0
G1 X95.605 Y115.959 F7800.000
G1 E2.00000 F2400.00000
G1 X93.112 Y99.834 E3.03030 F1800.000
G1 X92.302 Y99.938 E3.08186
G1 X89.630 Y109.834 E3.72911
G1 X89.427 Y110.443 E3.76965
G1 X89.115 Y111.094 E3.81526
G1 X88.732 Y111.704 E3.86073
G1 X88.290 Y112.275 E3.90633
G1 X87.792 Y112.810 E3.95244
G1 X87.245 Y113.314 E3.99945
G1 X86.649 Y113.793 E4.04772
G1 X85.945 Y114.295 E4.10231
G1 X84.750 Y114.951 E4.18843
G1 X83.373 Y115.428 E4.28046
G1 X81.905 Y115.705 E4.37479
G1 X80.405 Y115.796 E4.46963
G1 X67.683 Y115.796 E5.27300
G1 X67.626 Y116.267 E5.30297
G1 X69.295 Y116.678 E5.41154
G1 X71.496 Y117.372 E5.55725
G1 X72.639 Y117.810 E5.63451
G1 X73.759 Y118.301 E5.71177
G1 X74.870 Y118.860 E5.79030
G1 X75.964 Y119.494 E5.87010
G1 X77.032 Y120.208 E5.95124
G1 X78.065 Y121.009 E6.03381
G1 X79.055 Y121.902 E6.11800
G1 X79.990 Y122.893 E6.20402
G1 X80.861 Y123.984 E6.29214
G1 X82.510 Y126.457 E6.47986
G1 X79.298 Y129.145 E6.74431
G1 X77.273 Y127.201 E6.92156
G1 X76.409 Y126.535 E6.99046
G1 X75.422 Y125.924 E7.06377
G1 X74.307 Y125.369 E7.14244
G1 X73.059 Y124.874 E7.22722
G1 X71.676 Y124.444 E7.31868
G1 X70.157 Y124.083 E7.41726
G1 X68.463 Y123.786 E7.52586
G1 X65.845 Y123.377 E7.69315
G1 X64.661 Y123.170 E7.76911
G1 X62.639 Y122.760 E7.89933
G1 X61.735 Y122.542 E7.95809
G1 X60.916 Y122.318 E8.01166
G1 X60.164 Y122.081 E8.06146
G1 X59.470 Y121.825 E8.10818
G1 X58.826 Y121.546 E8.15250
G1 X58.228 Y121.236 E8.19505
G1 X57.628 Y120.863 E8.23966
G1 X56.699 Y120.096 E8.31574
G1 X55.934 Y119.166 E8.39180
G1 X55.326 Y118.055 E8.47172
G1 X54.959 Y116.925 E8.54678
G1 X54.796 Y115.842 E8.61590
G1 X54.791 Y115.227 E8.65474
G1 X53.497 Y114.806 E8.74067
G1 X52.709 Y114.420 E8.79609
G1 X52.004 Y113.925 E8.85046
G1 X51.410 Y113.365 E8.90199
G1 X50.921 Y112.764 E8.95095
G1 X50.528 Y112.136 E8.99773
G1 X50.224 Y111.488 E9.04289
G1 X49.983 Y110.739 E9.09256
G1 X45.480 Y110.356 E9.37798
G1 X48.228 Y106.501 E9.67695
G1 X49.213 Y106.045 E9.74552
G1 X50.878 Y105.785 E9.85191
G1 X51.267 Y105.700 E9.87709
G1 X51.721 Y105.570 E9.90692
G1 X52.485 Y105.305 E9.95796
G1 X53.058 Y105.076 E9.99693
G1 X52.233 Y103.619 E10.10265
G1 X51.648 Y102.353 E10.19070
G1 X51.374 Y101.584 E10.24227
G1 X51.156 Y100.781 E10.29481
G1 X51.006 Y99.918 E10.35012
G1 X50.941 Y99.001 E10.40819
G1 X50.980 Y98.038 E10.46902
G1 X51.146 Y96.992 E10.53587
G1 X51.421 Y96.160 E10.59126
G1 X51.854 Y95.354 E10.64901
G1 X52.392 Y94.611 E10.70693
G1 X53.027 Y93.910 E10.76665
G1 X53.755 Y93.236 E10.82929
G1 X54.577 Y92.583 E10.89558
G1 X55.494 Y91.948 E10.96599
G1 X56.506 Y91.331 E11.04084
G1 X57.613 Y90.734 E11.12032
G1 X58.817 Y90.158 E11.20454
G1 X60.115 Y89.609 E11.29360
G1 X61.509 Y89.089 E11.38753
G1 X62.998 Y88.603 E11.48639
G1 X64.579 Y88.156 E11.59018
G1 X66.254 Y87.752 E11.69895
G1 X67.996 Y87.401 E11.81118
G1 X70.652 Y86.910 E11.98174
G1 X73.166 Y86.414 E12.14356
G1 X75.525 Y85.890 E12.29613
G1 X76.612 Y85.618 E12.36685
G1 X77.646 Y85.334 E12.43457
G1 X78.611 Y85.038 E12.49836
G1 X79.502 Y84.731 E12.55784
G1 X80.309 Y84.412 E12.61262
G1 X81.025 Y84.086 E12.66229
G1 X81.641 Y83.755 E12.70645
G1 X82.135 Y83.437 E12.74358
G1 X82.619 Y83.043 E12.78296
G1 X84.127 Y81.533 E12.91777
G1 X87.384 Y84.069 E13.17844
G1 X86.172 Y86.099 E13.32771
G1 X85.711 Y86.749 E13.37806
G1 X85.199 Y87.367 E13.42874
G1 X84.639 Y87.952 E13.47989
G1 X84.032 Y88.504 E13.53165
G1 X83.382 Y89.022 E13.58418
G1 X82.689 Y89.509 E13.63763
G1 X81.956 Y89.965 E13.69216
G1 X81.183 Y90.391 E13.74793
G1 X80.370 Y90.790 E13.80508
G1 X79.518 Y91.161 E13.86377
G1 X78.626 Y91.505 E13.92412
G1 X77.696 Y91.825 E13.98626
G1 X76.726 Y92.121 E14.05030
G1 X75.714 Y92.394 E14.11648
G1 X72.936 Y93.048 E14.29669
G1 X71.268 Y93.479 E14.40544
G1 X69.674 Y93.934 E14.51010
G1 X68.160 Y94.409 E14.61031
G1 X66.733 Y94.901 E14.70563
G1 X65.402 Y95.408 E14.79558
G1 X64.174 Y95.925 E14.87971
G1 X63.059 Y96.449 E14.95749
G1 X62.066 Y96.973 E15.02839
G1 X61.206 Y97.490 E15.09179
G1 X60.488 Y97.990 E15.14702
G1 X59.923 Y98.456 E15.19325
G1 X59.521 Y98.867 E15.22959
G1 X59.280 Y99.192 E15.25512
G1 X59.178 Y99.396 E15.26949
G1 X59.133 Y99.576 E15.28126
G1 X59.111 Y100.123 E15.31580
G1 X59.178 Y100.747 E15.35540
G1 X59.310 Y101.283 E15.39026
G1 X59.509 Y101.840 E15.42761
G1 X60.057 Y103.167 E15.51830
G1 X60.336 Y104.052 E15.57687
G1 X60.491 Y105.125 E15.64534
G1 X60.420 Y105.916 E15.69551
G1 X60.198 Y106.624 E15.74236
G1 X59.892 Y107.225 E15.78492
G1 X59.494 Y107.800 E15.82911
G1 X59.325 Y107.972 E15.84432
G1 X59.558 Y108.332 E15.87140
G1 X60.733 Y107.898 E15.95047
G1 X62.076 Y107.353 E16.04197
G1 X62.884 Y107.057 E16.09637
G1 X63.786 Y106.772 E16.15610
G1 X65.349 Y106.365 E16.25805
G1 X66.903 Y106.049 E16.35821
G1 X68.801 Y105.799 E16.47907
G1 X71.006 Y101.459 E16.78649
G1 X71.732 Y100.350 E16.87016
G1 X72.582 Y99.305 E16.95522
G1 X73.549 Y98.324 E17.04222
G1 X74.628 Y97.406 E17.13172
G1 X75.816 Y96.546 E17.22427
G1 X77.108 Y95.743 E17.32033
G1 X79.550 Y94.428 E17.49548
G1 X80.483 Y93.841 E17.56510
G1 X81.311 Y93.233 E17.62994
G1 X82.034 Y92.607 E17.69038
G1 X82.658 Y91.964 E17.74694
G1 X83.187 Y91.304 E17.80033
G1 X83.627 Y90.626 E17.85136
G1 X84.676 Y88.574 E17.99692
G1 X102.636 Y88.574 E19.13098
G1 X103.194 Y92.710 E19.39452
G1 X105.489 Y92.999 E19.54063
G1 X107.591 Y93.332 E19.67496
G1 X108.187 Y93.444 E19.71330
G1 X111.417 Y88.574 E20.08233
G1 X129.544 Y88.574 E21.22693
G1 X128.877 Y90.976 E21.38434
G1 X129.252 Y91.179 E21.41124
G1 X134.990 Y84.689 E21.95831
G1 X137.411 Y93.958 E22.56325
G1 X137.804 Y93.978 E22.58806
G1 X139.807 Y88.574 E22.95198
G1 X150.975 Y88.574 E23.65719
G1 X143.856 Y109.914 E25.07773
G1 X143.197 Y111.194 E25.16863
G1 X142.358 Y112.339 E25.25826
G1 X141.347 Y113.334 E25.34786
G1 X140.194 Y114.156 E25.43726
G1 X138.784 Y114.895 E25.53778
G1 X137.336 Y115.420 E25.63505
G1 X135.844 Y115.726 E25.73122
G1 X134.444 Y115.796 E25.81975
G1 X132.349 Y115.796 E25.95204
G1 X129.670 Y107.231 E26.51874
G1 X126.781 Y110.561 E26.79712
G1 X126.149 Y111.332 E26.86008
G1 X125.236 Y112.212 E26.94011
G1 X124.177 Y113.067 E27.02608
G1 X122.952 Y113.926 E27.12056
G1 X122.199 Y114.381 E27.17612
G1 X121.399 Y114.779 E27.23255
G1 X120.567 Y115.111 E27.28910
G1 X119.708 Y115.377 E27.34591
G1 X118.824 Y115.578 E27.40316
G1 X117.918 Y115.714 E27.46100
G1 X116.983 Y115.787 E27.52021
G1 X111.161 Y115.806 E27.88783
G1 X114.726 Y102.532 E28.75573
G1 X114.317 Y102.343 E28.78421
G1 X108.281 Y111.079 E29.45470
G1 X107.430 Y112.119 E29.53956
G1 X106.501 Y113.051 E29.62267
G1 X105.495 Y113.859 E29.70415
G1 X104.450 Y114.510 E29.78186
G1 X103.651 Y114.916 E29.83846
G1 X102.891 Y115.248 E29.89082
G1 X102.120 Y115.529 E29.94265
G1 X101.262 Y115.764 E29.99880
G1 X100.605 Y115.897 E30.04115
G1 X99.839 Y115.985 E30.08986
G1 X99.073 Y116.002 E30.13825
G1 X98.520 Y115.959 E30.17326
G1 X95.680 Y115.959 E30.35262
G1 X96.370 Y115.066 F7800.000
G1 X93.861 Y98.838 E31.38953 F1800.000
G1 X92.264 Y99.043 E31.49124
G1 X91.586 Y99.163 E31.53467
G1 X88.775 Y109.576 E32.21570
G1 X88.598 Y110.107 E32.25108
G1 X88.331 Y110.663 E32.29001
G1 X88.000 Y111.192 E32.32945
G1 X87.609 Y111.696 E32.36972
G1 X87.162 Y112.177 E32.41115
G1 X86.662 Y112.637 E32.45407
G1 X86.110 Y113.081 E32.49878
G1 X85.470 Y113.537 E32.54843
G1 X84.386 Y114.132 E32.62651
G1 X83.142 Y114.563 E32.70962
G1 X81.794 Y114.817 E32.79624
G1 X80.378 Y114.904 E32.88583
G1 X67.513 Y114.904 E33.69823
G1 X68.900 Y109.817 E34.03115
G1 X67.351 Y110.425 E34.13618
G1 X65.955 Y111.086 E34.23374
G1 X64.618 Y111.841 E34.33068
G1 X63.236 Y112.653 E34.43191
G1 X62.011 Y113.284 E34.51891
G1 X61.439 Y113.537 E34.55839
G1 X60.816 Y113.774 E34.60048
G1 X60.823 Y114.182 E34.62628
G1 X60.870 Y114.445 E34.64313
G1 X60.975 Y114.696 E34.66031
G1 X61.180 Y114.987 E34.68280
G1 X61.524 Y115.318 E34.71293
G1 X62.067 Y115.684 E34.75427
G1 X62.381 Y115.848 E34.77669
G1 X62.774 Y116.022 E34.80381
G1 X63.224 Y116.188 E34.83411
G1 X63.734 Y116.345 E34.86776
G1 X64.301 Y116.489 E34.90474
G1 X66.945 Y117.019 E35.07503
G1 X69.054 Y117.538 E35.21216
G1 X71.202 Y118.215 E35.35437
G1 X72.300 Y118.636 E35.42858
G1 X73.379 Y119.109 E35.50301
G1 X74.445 Y119.646 E35.57839
G1 X75.491 Y120.252 E35.65472
G1 X76.510 Y120.933 E35.73207
G1 X77.492 Y121.694 E35.81055
G1 X78.430 Y122.541 E35.89038
G1 X79.315 Y123.479 E35.97180
G1 X80.139 Y124.511 E36.05517
G1 X81.323 Y126.286 E36.18994
G1 X79.339 Y127.947 E36.35330
G1 X77.857 Y126.524 E36.48306
G1 X76.918 Y125.801 E36.55789
G1 X75.857 Y125.143 E36.63669
G1 X74.671 Y124.553 E36.72037
G1 X73.356 Y124.032 E36.80968
G1 X71.912 Y123.583 E36.90519
G1 X70.337 Y123.208 E37.00738
G1 X68.609 Y122.906 E37.11820
G1 X65.991 Y122.497 E37.28547
G1 X64.826 Y122.292 E37.36016
G1 X62.832 Y121.888 E37.48863
G1 X61.957 Y121.678 E37.54549
G1 X61.169 Y121.462 E37.59709
G1 X60.453 Y121.236 E37.64448
G1 X59.802 Y120.996 E37.68827
G1 X59.209 Y120.739 E37.72908
G1 X58.669 Y120.459 E37.76751
G1 X58.150 Y120.137 E37.80610
G1 X57.334 Y119.462 E37.87295
G1 X56.677 Y118.663 E37.93828
G1 X56.150 Y117.700 E38.00761
G1 X55.831 Y116.719 E38.07276
G1 X55.688 Y115.771 E38.13326
G1 X55.680 Y114.889 E38.18901
G1 X55.727 Y114.469 E38.21566
G1 X54.855 Y114.309 E38.27165
G1 X53.833 Y113.977 E38.33954
G1 X53.165 Y113.649 E38.38655
G1 X52.570 Y113.231 E38.43244
G1 X52.065 Y112.756 E38.47620
G1 X51.648 Y112.243 E38.51795
G1 X51.313 Y111.708 E38.55782
G1 X51.057 Y111.161 E38.59599
G1 X50.873 Y110.591 E38.63376
G1 X50.772 Y109.911 E38.67721
G1 X47.115 Y109.600 E38.90897
G1 X48.818 Y107.212 E39.09415
G1 X49.474 Y106.907 E39.13987
G1 X51.042 Y106.663 E39.24003
G1 X51.486 Y106.566 E39.26873
G1 X51.991 Y106.421 E39.30192
G1 X52.797 Y106.141 E39.35582
G1 X53.446 Y105.882 E39.39993
G1 X53.930 Y105.653 E39.43376
G1 X54.278 Y105.450 E39.45918
G1 X54.070 Y105.051 E39.48760
G1 X53.028 Y103.211 E39.62115
G1 X52.475 Y102.015 E39.70432
G1 X52.226 Y101.317 E39.75113
G1 X52.029 Y100.587 E39.79889
G1 X51.893 Y99.809 E39.84875
G1 X51.835 Y98.987 E39.90079
G1 X51.870 Y98.126 E39.95519
G1 X52.016 Y97.204 E40.01416
G1 X52.245 Y96.514 E40.06008
G1 X52.612 Y95.829 E40.10914
G1 X53.087 Y95.175 E40.16020
G1 X53.662 Y94.538 E40.21437
G1 X54.337 Y93.915 E40.27238
G1 X55.109 Y93.301 E40.33470
G1 X55.981 Y92.697 E40.40163
G1 X56.950 Y92.106 E40.47335
G1 X58.018 Y91.530 E40.54996
G1 X59.183 Y90.972 E40.63152
G1 X60.446 Y90.438 E40.71806
G1 X61.804 Y89.932 E40.80961
G1 X63.258 Y89.457 E40.90617
G1 X64.806 Y89.020 E41.00774
G1 X66.447 Y88.624 E41.11435
G1 X68.166 Y88.278 E41.22507
G1 X70.820 Y87.787 E41.39551
G1 X73.350 Y87.287 E41.55834
G1 X75.730 Y86.759 E41.71232
G1 X76.838 Y86.482 E41.78445
G1 X77.895 Y86.191 E41.85364
G1 X78.888 Y85.887 E41.91924
G1 X79.811 Y85.568 E41.98092
G1 X80.658 Y85.234 E42.03840
G1 X81.421 Y84.886 E42.09137
G1 X82.094 Y84.525 E42.13957
G1 X82.660 Y84.161 E42.18210
G1 X83.218 Y83.706 E42.22753
G1 X84.201 Y82.722 E42.31539
G1 X86.213 Y84.289 E42.47642
G1 X85.424 Y85.611 E42.57367
G1 X85.002 Y86.206 E42.61969
G1 X84.532 Y86.773 E42.66621
G1 X84.015 Y87.312 E42.71339
G1 X83.453 Y87.824 E42.76139
G1 X82.846 Y88.307 E42.81038
G1 X82.197 Y88.764 E42.86053
G1 X81.504 Y89.195 E42.91200
G1 X80.770 Y89.599 E42.96492
G1 X79.995 Y89.979 E43.01945
G1 X79.178 Y90.335 E43.07571
G1 X78.320 Y90.667 E43.13382
G1 X77.420 Y90.976 E43.19388
G1 X76.479 Y91.263 E43.25601
G1 X75.495 Y91.528 E43.32037
G1 X72.722 Y92.181 E43.50030
G1 X71.034 Y92.618 E43.61036
G1 X69.418 Y93.079 E43.71645
G1 X67.881 Y93.561 E43.81820
G1 X66.429 Y94.062 E43.91520
G1 X65.070 Y94.579 E44.00703
G1 X63.811 Y95.110 E44.09328
G1 X62.661 Y95.650 E44.17351
G1 X61.628 Y96.195 E44.24728
G1 X60.720 Y96.740 E44.31413
G1 X59.947 Y97.278 E44.37359
G1 X59.318 Y97.798 E44.42514
G1 X58.841 Y98.286 E44.46827
G1 X58.517 Y98.723 E44.50258
G1 X58.335 Y99.085 E44.52817
G1 X58.249 Y99.433 E44.55079
G1 X58.220 Y99.800 E44.57406
G1 X58.218 Y100.169 E44.59732
G1 X58.297 Y100.902 E44.64387
G1 X58.454 Y101.540 E44.68542
G1 X58.676 Y102.160 E44.72699
G1 X59.217 Y103.472 E44.81659
G1 X59.462 Y104.251 E44.86817
G1 X59.593 Y105.150 E44.92550
G1 X59.540 Y105.741 E44.96297
G1 X59.369 Y106.285 E44.99903
G1 X59.124 Y106.766 E45.03310
G1 X58.803 Y107.230 E45.06870
G1 X58.096 Y107.951 E45.13249
G1 X57.256 Y108.501 E45.19588
G1 X56.587 Y108.802 E45.24218
G1 X55.843 Y109.082 E45.29238
G1 X55.286 Y109.256 E45.32924
G1 X55.329 Y109.690 E45.35678
G1 X55.995 Y109.760 E45.39912
G1 X56.690 Y109.770 E45.44302
G1 X57.452 Y109.715 E45.49122
G1 X58.274 Y109.590 E45.54375
G1 X59.055 Y109.415 E45.59425
G1 X59.741 Y109.217 E45.63937
G1 X61.055 Y108.730 E45.72786
G1 X62.397 Y108.186 E45.81929
G1 X63.173 Y107.902 E45.87145
G1 X64.033 Y107.630 E45.92844
G1 X65.550 Y107.235 E46.02742
G1 X67.052 Y106.930 E46.12421
G1 X68.753 Y106.699 E46.23260
G1 X69.371 Y106.648 E46.27174
G1 X71.780 Y101.907 E46.60753
G1 X72.453 Y100.878 E46.68520
G1 X73.247 Y99.902 E46.76465
G1 X74.157 Y98.979 E46.84650
G1 X75.180 Y98.108 E46.93132
G1 X76.314 Y97.288 E47.01967
G1 X77.555 Y96.516 E47.11199
G1 X79.999 Y95.200 E47.28727
G1 X80.986 Y94.580 E47.36083
G1 X81.868 Y93.932 E47.42998
G1 X82.648 Y93.256 E47.49513
G1 X83.328 Y92.555 E47.55681
G1 X83.911 Y91.828 E47.61566
G1 X84.401 Y91.074 E47.67243
G1 X85.222 Y89.467 E47.78641
G1 X101.855 Y89.467 E48.83671
G1 X102.403 Y93.528 E49.09547
G1 X103.312 Y93.619 E49.15313
G1 X105.363 Y93.883 E49.28370
G1 X107.438 Y94.211 E49.41639
G1 X108.604 Y94.431 E49.49129
G1 X111.897 Y89.467 E49.86747
G1 X128.370 Y89.467 E50.90767
G1 X126.982 Y94.467 E51.23534
G1 X127.357 Y94.670 E51.26225
G1 X134.550 Y86.535 E51.94796
G1 X137.264 Y96.925 E52.62604
G1 X137.656 Y96.944 E52.65084
G1 X140.428 Y89.467 E53.15443
G1 X149.736 Y89.467 E53.74219
G1 X143.031 Y109.566 E55.08017
G1 X142.435 Y110.723 E55.16231
G1 X141.680 Y111.753 E55.24296
G1 X140.771 Y112.648 E55.32354
G1 X139.725 Y113.394 E55.40462
G1 X138.423 Y114.076 E55.49748
G1 X137.092 Y114.559 E55.58684
G1 X135.731 Y114.838 E55.67459
G1 X134.421 Y114.904 E55.75741
G1 X133.005 Y114.904 E55.84685
G1 X130.044 Y105.437 E56.47320
G1 X126.099 Y109.986 E56.85341
G1 X125.492 Y110.725 E56.91385
G1 X124.645 Y111.542 E56.98812
G1 X123.640 Y112.354 E57.06970
G1 X122.465 Y113.178 E57.16034
G1 X121.769 Y113.598 E57.21167
G1 X121.034 Y113.963 E57.26350
G1 X120.269 Y114.269 E57.31551
